X:86
T:Silver Spear, The
S:The Session: https://thesession.org/tunes/182#setting45738
C:Traditional
R:reel
K:D
M:4/4
L:1/8
Q:1/4=120
|:"D"FA ~A2 BAFA|"G"dfed "A"BcdA|"D"FA ~A2 BAFA|"G"dfed "A"~B2 A2|
|"D"FA ~A2 BAFA|"G"dfed "A"Bdef|"G"~g3 e "D"~f3 e|"G"dfed "A"~B2 A2:|
|:"D"fa ~a2 bfaf|"G"gfed "A"Bcde|"D"fa ~a2 bfaf|"G"gfed "A"~B2 A2|
|"D"fa ~a2 bfaf|"G"gfed "A"Bdef|"G"~g3 e "D"~f3 e|1 "G"dfed "A"~B2 A2:|2 "G"dfed "D"~d4||

